src/assets/icons/pinterest_icon.svg

<svg width="60" height="60" viewBox="0 0 60 60" fill="none" xmlns="http://www.w3.org/2000/svg">
<path d="M21.3667 57.8251C24.1667 58.6709 26.9958 59.1667 30 59.1667C37.7355 59.1667 45.1542 56.0938 50.624 50.624C56.0938 45.1542 59.1667 37.7355 59.1667 30C59.1667 26.1698 58.4123 22.3771 56.9465 18.8384C55.4807 15.2998 53.3323 12.0845 50.624 9.37609C47.9156 6.66772 44.7003 4.51932 41.1616 3.05355C37.623 1.58779 33.8302 0.833374 30 0.833374C26.1698 0.833374 22.3771 1.58779 18.8384 3.05355C15.2997 4.51932 12.0844 6.66772 9.37606 9.37609C3.90625 14.8459 0.833344 22.2646 0.833344 30C0.833344 42.3959 8.62084 53.0417 19.6167 57.2417C19.3542 54.9667 19.0917 51.2042 19.6167 48.6084L22.9708 34.2C22.9708 34.2 22.125 32.5084 22.125 29.825C22.125 25.8 24.6333 22.7959 27.4917 22.7959C30 22.7959 31.1667 24.6334 31.1667 26.9959C31.1667 29.5042 29.5042 33.0917 28.6583 36.5334C28.1625 39.3917 30.175 41.9 33.0917 41.9C38.2833 41.9 42.3083 36.3584 42.3083 28.5417C42.3083 21.5417 37.2917 16.7584 30.0875 16.7584C21.8625 16.7584 17.0208 22.8834 17.0208 29.3292C17.0208 31.8375 17.8375 34.375 19.1792 36.0375C19.4417 36.2125 19.4417 36.4459 19.3542 36.8834L18.5083 40.0625C18.5083 40.5584 18.1875 40.7334 17.6917 40.3834C13.9583 38.75 11.8 33.4417 11.8 29.1542C11.8 19.9375 18.3333 11.5667 30.9333 11.5667C40.9667 11.5667 48.7834 18.7709 48.7834 28.3375C48.7834 38.3709 42.5709 46.4209 33.675 46.4209C30.8458 46.4209 28.075 44.9042 27.0833 43.125L25.1292 50.0375C24.4583 52.5459 22.6208 55.9 21.3667 57.9125V57.8251Z" fill="#CCCCCC"/>
</svg>

<svg xmlns="http://www.w3.org/2000/svg" width="60" height="60" fill="none"><path fill="#CCC" d="M21.367 57.825c2.8.846 5.629 1.342 8.633 1.342A29.167 29.167 0 1 0 .833 30c0 12.396 7.788 23.042 18.784 27.242-.263-2.275-.525-6.038 0-8.634L22.97 34.2s-.846-1.692-.846-4.375c0-4.025 2.508-7.03 5.367-7.03 2.508 0 3.675 1.838 3.675 4.2 0 2.51-1.663 6.097-2.509 9.538-.495 2.859 1.517 5.367 4.434 5.367 5.191 0 9.216-5.542 9.216-13.358 0-7-5.016-11.784-12.22-11.784-8.226 0-13.067 6.125-13.067 12.571 0 2.508.816 5.046 2.158 6.709.263.175.263.408.175.845l-.846 3.18c0 .495-.32.67-.816.32-3.734-1.633-5.892-6.941-5.892-11.229 0-9.216 6.533-17.587 19.133-17.587 10.034 0 17.85 7.204 17.85 16.77 0 10.034-6.212 18.084-15.108 18.084-2.83 0-5.6-1.517-6.592-3.296l-1.954 6.913c-.67 2.508-2.508 5.862-3.762 7.875v-.088Z"/></svg>
